X:77
T:James Morneal Theeel Polka
R:polka
Z:id:hn-polka-74
M:2/4
L:1/8
K:D
A>B cB|AF EF|EF AB|AF FE|EF AB|AF AB|AF EF|EF AB|AB AB|AF EF|A>B AG|FA AF|A2 AB|A2 A2:|
<end>
<start>
